X: 10464
M: 6/8
L: 1/8
K: Bm
agf ecA | ABA cde | fgf Bdf | ecA B2 :: f |\
b2b bab | fdB B2g | aba agf | ecA ABc |
d2d F2F | e2e F2F | fgf Bdf | ecA B2 :: d/e/ |\
fdd B2d | fdd B2c/d/ | ecc Acc | ecc ABc |\
d2d F2F | e2e F2F | fgf Bdf | ecA B2 :|


